X:1
T:Title
%%score [ ( 1 2 ) ( 3 4 ) ] { ( 5 6 ) | 7 }
L:1/8
Q:1/4=120
M:4/4
K:D
V:1 treble nm="Midi_74"
V:2 treble 
V:3 bass nm="Midi_74"
V:4 bass 
V:5 treble nm="Org."
V:6 treble 
V:7 bass 
V:1
 D8 | A4 F4 | B8 || B8 | e4 c4 | d4 ^G4 | A8 || A8 | d4 B4 | e8 || c8 | %11
 f4"^William Henry Havergal\n(1793-1870)" d4 | e4 c4 | d8 |] %14
V:2
 D8 | E4 D4 | D8 || G8 | G4 G4 | F4 E4 | E8 || D8 | F4 G4 | G8 || E8 | F4 F4 | G4 G4 | F8 |] %14
V:3
 F,8 | A,4 D4 | D8 || D8 | E4 E4 | D4 D4 | C8 || D8 | D4 D4 | E8 || A,8 | A,4 B,4 | (B,4 [A,E]4) | %13
 [A,D]8 |] %14
V:4
 D,8 | C,4 D,4 | A,,8 || G,8 | E,4 A,4 | D,4 E,4 | A,,8 || F,8 | D,4 G,4 | E,8 || A,8 | F,4 B,4 | %12
 G,4 A,4 | D,8 |] %14
V:5
 D8 | A4 F4 | B8 || B8 | e4 c4 | d4 ^G4 | A8 || A8 | d4 B4 | e8 || c8 | f4 d4 | e4 c4 | d8 |] %14
V:6
 D8 | [A,E]4 D4 | [DG]8 || [DG]8 | [EG]4 [EG]4 | [DF]4 [DE]4 | [CE]8 || D8 | [DF]4 [DG]4 | [EG]8 || %10
 [EA]8 | [FAc]4 [FB]4 | [EG]4 [EG]4 | [DF]8 |] %14
V:7
 [D,F,A,]8 | C,4 D,4 | G,,8 || G,8 | E,4 A,4 | D,4 E,4 | A,,8 || F,8 | D,4 G,4 | E,8 || A,8 | %11
 F,4 B,4 | G,4 A,4 | D,8 |] %14

